src/lib/packages/icons/src/assets/filled/receipt-heart-alt.svg

<svg width="24" height="24" viewBox="0 0 24 24" fill="none" xmlns="http://www.w3.org/2000/svg">
<path d="M18.4 4.579L17.041 5.59798C16.444 6.04598 15.608 5.986 15.08 5.459L13.061 3.43999C12.475 2.85399 11.5249 2.85399 10.9399 3.43999L8.92102 5.459C8.39302 5.987 7.55696 6.04598 6.95996 5.59798L5.60095 4.579C4.94195 4.085 4.00098 4.55498 4.00098 5.37898V18.622C4.00098 19.446 4.94195 19.916 5.60095 19.422L6.95996 18.403C7.55696 17.955 8.39302 18.015 8.92102 18.542L10.9399 20.561C11.5259 21.147 12.476 21.147 13.061 20.561L15.08 18.542C15.608 18.014 16.444 17.955 17.041 18.403L18.4 19.422C19.059 19.916 20 19.446 20 18.622V5.37898C20 4.55498 19.059 4.084 18.4 4.579ZM15.925 11.544C15.403 14.213 12 15.75 12 15.75C12 15.75 8.59695 14.213 8.07495 11.544C7.75495 9.90599 8.45396 8.25899 10.231 8.24999C11.555 8.24399 11.999 9.56798 11.999 9.56798C11.999 9.56798 12.443 8.24299 13.767 8.24999C15.549 8.25899 16.245 9.90599 15.925 11.544Z" fill="currentColor"/>
</svg>

<svg xmlns="http://www.w3.org/2000/svg" width="24" height="24" fill="none"><path fill="currentColor" d="m18.4 4.579-1.359 1.019a1.501 1.501 0 0 1-1.961-.139L13.061 3.44a1.5 1.5 0 0 0-2.121 0L8.92 5.459a1.5 1.5 0 0 1-1.961.139L5.601 4.579a1 1 0 0 0-1.6.8v13.243a1 1 0 0 0 1.6.8l1.359-1.019a1.501 1.501 0 0 1 1.961.139l2.019 2.019a1.5 1.5 0 0 0 2.121 0l2.019-2.019a1.5 1.5 0 0 1 1.961-.139l1.359 1.019a1 1 0 0 0 1.6-.8V5.379a1 1 0 0 0-1.6-.8Zm-2.475 6.965C15.403 14.213 12 15.75 12 15.75s-3.403-1.537-3.925-4.206c-.32-1.638.379-3.285 2.156-3.294 1.324-.006 1.768 1.318 1.768 1.318s.444-1.325 1.768-1.318c1.782.009 2.478 1.656 2.158 3.294Z"/></svg>
